X: 1
T: the Chandelier
C: Liz Carroll
R: reel
Z: 2009 John Chambers <jc:trillian.mit.edu>
S: PDF of unknown origin, from Roger Walker 2009-4-13
M: C|
L: 1/8
K: D
|: DF (3FFF A,CEC | DFAc d2cd | Bg~g2 gbed | cAed cAGE |
|  DF (3FFF A,CEC | DFAc d2d2 | cAAG ABAG |1 FAEC DA,B,C :|2 FAEC DEFA ||
|: d2ba afgf | ed~d2 cABc | d2ba afgf | ed~d2 cega |
|  fd~d2 defg | ecAG ABcA | BG~G2 GABF |1 AFEF DEFA :|2 AFEF HDA,B,C |]
